gos-pohoronq/img/phone.svg

<svg width="16" height="26" viewBox="0 0 16 26" fill="none" xmlns="http://www.w3.org/2000/svg">
<path d="M0.5 23V3C0.5 1.625 1.625 0.5 3 0.5H13C14.375 0.5 15.5 1.625 15.5 3V23C15.5 24.375 14.375 25.5 13 25.5H3C1.625 25.5 0.5 24.375 0.5 23Z" fill="#E38939"/>
<path d="M13 2.375H3C2.625 2.375 2.375 2.625 2.375 3V21.125C2.375 21.5 2.625 21.75 3 21.75H13C13.375 21.75 13.625 21.5 13.625 21.125V3C13.625 2.625 13.375 2.375 13 2.375Z" fill="#FFF3E0"/>
<path d="M8 24.5625C8.51777 24.5625 8.9375 24.1428 8.9375 23.625C8.9375 23.1072 8.51777 22.6875 8 22.6875C7.48223 22.6875 7.0625 23.1072 7.0625 23.625C7.0625 24.1428 7.48223 24.5625 8 24.5625Z" fill="#A6642A"/>
</svg>

<svg width="16" height="26" fill="none" xmlns="http://www.w3.org/2000/svg"><path d="M.5 23V3C.5 1.625 1.625.5 3 .5h10c1.375 0 2.5 1.125 2.5 2.5v20c0 1.375-1.125 2.5-2.5 2.5H3A2.507 2.507 0 01.5 23z" fill="#E38939"/><path d="M13 2.375H3c-.375 0-.625.25-.625.625v18.125c0 .375.25.625.625.625h10c.375 0 .625-.25.625-.625V3c0-.375-.25-.625-.625-.625z" fill="#FFF3E0"/><path d="M8 24.563a.937.937 0 100-1.875.937.937 0 000 1.875z" fill="#A6642A"/></svg>
